X:26
T:Coleraine Jig
C:Traditional Irish
M:6/8
L:1/8
Q:1/8=390
K:Am
E|:"Am"EAA ABc|"E"Bee e2d|"Am"cBA ABc|"E"B^GE E2E|
"Am"EAA ABc|"E"Bee e2d|"Am"cBA "E"B^GE|1 \
"Am"A3 A2E:|2 "Am"A3 A2B|
|:"C"c2c cdc|"G"Bdg g2^g|"Am"aed cBA|"E"^GBG E^FG|
"Am"A^GA "E"BAB|"AM"cde "Dm"fed|"Am"cBA\
 "E"B^GE|1"Am" A3 A2B:|2"Am" A3 A2||
